svg/24/logo-slack.svg

<svg width="24" height="24" viewBox="0 0 24 24" fill="currentColor" xmlns="http://www.w3.org/2000/svg"><path d="M9.62541 6.78176C8.58469 6.78176 7.73453 5.93159 7.73453 4.89088C7.73453 3.85016 8.58469 3 9.62541 3C10.6661 3 11.5163 3.85016 11.5163 4.89088V6.78176H9.62541Z"/><path d="M4.89088 16.2655C5.93159 16.2655 6.78176 15.4153 6.78176 14.3746V12.4837H4.89088C3.85016 12.4837 3 13.3339 3 14.3746C3 15.4153 3.85016 16.2655 4.89088 16.2655Z"/><path d="M9.62541 12.4837C8.58469 12.4837 7.73453 13.3339 7.73453 14.3746V19.1091C7.73453 20.1498 8.58469 21 9.62541 21C10.6661 21 11.5163 20.1498 11.5163 19.1091V14.3746C11.5163 13.3339 10.6661 12.4837 9.62541 12.4837Z"/><path d="M11.5163 9.62541C11.5163 8.58469 10.6661 7.73453 9.6254 7.73453H4.89088C3.85016 7.73453 3 8.58469 3 9.62541C3 10.6661 3.85016 11.5163 4.89088 11.5163H9.6254C10.6661 11.5163 11.5163 10.6661 11.5163 9.62541Z"/><path d="M17.2182 9.62541C17.2182 8.58469 18.0684 7.73453 19.1091 7.73453C20.1498 7.73453 21 8.58469 21 9.62541C21 10.6661 20.1498 11.5163 19.1091 11.5163H17.2182V9.62541Z"/><path d="M14.3746 11.5163C15.4153 11.5163 16.2655 10.6661 16.2655 9.6254V4.89088C16.2655 3.85016 15.4153 3 14.3746 3C13.3339 3 12.4837 3.85016 12.4837 4.89088V9.6254C12.4837 10.6661 13.3339 11.5163 14.3746 11.5163Z"/><path d="M14.3746 17.2183C15.4153 17.2183 16.2655 18.0684 16.2655 19.1091C16.2655 20.1498 15.4153 21 14.3746 21C13.3339 21 12.4837 20.1498 12.4837 19.1091V17.2183H14.3746Z"/><path d="M12.4837 14.3746C12.4837 15.4153 13.3339 16.2655 14.3746 16.2655H19.1091C20.1498 16.2655 21 15.4153 21 14.3746C21 13.3339 20.1498 12.4837 19.1091 12.4837H14.3746C13.3339 12.4837 12.4837 13.3339 12.4837 14.3746Z"/></svg>

<svg xmlns="http://www.w3.org/2000/svg" width="24" height="24" fill="currentColor" viewBox="0 0 24 24">
  <path d="M9.625 6.782c-1.04 0-1.89-.85-1.89-1.891 0-1.04.85-1.891 1.89-1.891 1.041 0 1.891.85 1.891 1.89v1.892h-1.89ZM4.89 16.265c1.042 0 1.892-.85 1.892-1.89v-1.891H4.89c-1.04 0-1.891.85-1.891 1.89 0 1.041.85 1.891 1.89 1.891Zm4.735-3.781c-1.04 0-1.89.85-1.89 1.89v4.735c0 1.04.85 1.891 1.89 1.891 1.041 0 1.891-.85 1.891-1.89v-4.735c0-1.041-.85-1.891-1.89-1.891Zm1.891-2.859c0-1.04-.85-1.89-1.89-1.89H4.89c-1.04 0-1.89.85-1.89 1.89 0 1.041.85 1.891 1.89 1.891h4.735c1.041 0 1.891-.85 1.891-1.89Zm5.702 0c0-1.04.85-1.89 1.891-1.89 1.04 0 1.891.85 1.891 1.89 0 1.041-.85 1.891-1.89 1.891h-1.892v-1.89Zm-2.843 1.891c1.04 0 1.89-.85 1.89-1.89V4.89c0-1.04-.85-1.891-1.89-1.891-1.041 0-1.891.85-1.891 1.89v4.735c0 1.041.85 1.891 1.89 1.891Zm0 5.702c1.04 0 1.89.85 1.89 1.891 0 1.04-.85 1.891-1.89 1.891a1.895 1.895 0 0 1-1.891-1.89v-1.892h1.89Zm-1.891-2.843c0 1.04.85 1.89 1.89 1.89h4.735c1.04 0 1.891-.85 1.891-1.89 0-1.041-.85-1.891-1.89-1.891h-4.735c-1.041 0-1.891.85-1.891 1.89Z"/>
</svg>
